X:1
T:St. Francis (Sullivan), 10.6.10.6.88.4
T:Arthur Seymour Sullivan, 1874
T:St. Francis (Sullivan), 10.6.10.6.88.4
T:Public Domain
C:Arthur Seymour Sullivan, 1874
Z:Public Domain
%%score ( 1 2 ) ( 3 4 )
L:1/8
M:none
K:F
V:1 treble 
V:2 treble 
V:3 bass 
V:4 bass 
V:1
 [FA]8 | [Fc]2 [EB]2 [FA]2 [EG]2 | F3 F [FG]2 [EB]2 | [FA]4 | [FA]8 | [Fc]3 [Fc] [EB]2 [FA]2 | %6
 G2 G2 [FA]2 [FG]2 | [EG]6 [EG]2 | [EG]2 ([DF][CG]) [CA]2 [FA]2 | [EG]2 [DF][CG] [CA]2 [FA]2 | %10
 [FB]2 (cd) [=Fc]2 [^FA]2 | [GB]2 [DB]2 [^CA]4 | [DG]4 [CA]2 [B,G]2 | [A,F]8 |] %14
V:2
 x8 | x8 | F3 F x4 | x4 | x8 | x8 | G2 G2 x4 | x8 | x8 | x8 | x2 ^F2 x4 | x8 | x8 | x8 |] %14
V:3
 [F,C]8 | [A,C]2 [G,C]2 [F,C]2 [C,B,]2 | [D,A,]2 [A,,C]2 [B,,D]2 [C,C]2 | [F,C]4 | [F,C]8 | %5
 [A,C]3 [A,C] [G,C]2 [F,C]2 | [E,C]2 [E,C]2 [D,=B,]2 [D,B,]2 | [C,C]6 [C,C]2 | %8
 [C,B,]2 ([D,A,][E,G,]) F,2 [F,C]2 | [C,B,]2 [D,A,][E,G,] F,2 [F,C]2 | %10
 [D,B,]2 ([C,A,][B,,G,]) [A,,C]2 [D,C]2 | [G,,B,]2 [G,,G,]2 [A,,E,]4 | [B,,D,]4 [C,E,]2 [C,E,]2 | %13
 [F,,F,]8 |] %14
V:4
 x8 | x8 | x8 | x4 | x8 | x8 | x8 | x8 | x4 F,2 x2 | x4 F,2 x2 | x8 | x8 | x8 | x8 |] %14

